material/.icons/material/film.svg

<svg xmlns="http://www.w3.org/2000/svg" viewBox="0 0 24 24"><path d="M3.5 3H5V1.8c0-.44.36-.8.8-.8h4.4c.44 0 .8.36.8.8V3h1.5A1.5 1.5 0 0114 4.5V5h8v15h-8v.5a1.5 1.5 0 01-1.5 1.5h-9A1.5 1.5 0 012 20.5v-16A1.5 1.5 0 013.5 3M18 7v2h2V7h-2m-4 0v2h2V7h-2m-4 0v2h2V7h-2m4 9v2h2v-2h-2m4 0v2h2v-2h-2m-8 0v2h2v-2h-2z"/></svg>

<?xml version="1.0" encoding="UTF-8"?><!DOCTYPE svg PUBLIC "-//W3C//DTD SVG 1.1//EN" "http://www.w3.org/Graphics/SVG/1.1/DTD/svg11.dtd"><svg xmlns="http://www.w3.org/2000/svg" xmlns:xlink="http://www.w3.org/1999/xlink" version="1.1" id="mdi-film" width="24" height="24" viewBox="0 0 24 24"><path d="M3.5,3H5V1.8C5,1.36 5.36,1 5.8,1H10.2C10.64,1 11,1.36 11,1.8V3H12.5A1.5,1.5 0 0,1 14,4.5V5H22V20H14V20.5A1.5,1.5 0 0,1 12.5,22H3.5A1.5,1.5 0 0,1 2,20.5V4.5A1.5,1.5 0 0,1 3.5,3M18,7V9H20V7H18M14,7V9H16V7H14M10,7V9H12V7H10M14,16V18H16V16H14M18,16V18H20V16H18M10,16V18H12V16H10Z" /></svg>
